X: 222
T: Dingo's Breakfast
C:Ross Smithard, 3 Oct 2011
B: canberra pickers and fiddlers
B: old time tunes update
B: tunes
M:4/4
L:1/8
R: reel
Q: 1/4=100
K:D
V:1 
|:"D"D2FG ABd2|"G"B3d BAF2|"D"A3B AFDF|"A"EDEFA2F2|
"D"D2FG ABd2|"G"B3d BAF2|"D"A3B AFDF|"A"EDEF"D"D4:|
|:"D"d3cB2A2|BABcd2f2|"A"e3f edcd|e2f2 ecAc|
"D"d3cB2A2|BABcd2f2|"A"e3f edcA|"G"BABc "D"d4:|
% abcbook-tune_id 6342d53a23f65fdb2e273050
% abcbook-tune_composer_id 
% abcbook-link-0 https://www.youtube.com/watch?v=yoc2ECiY9F0
% abcbook-link-start-at-0 39
% abcbook-boost 0
% abcbook-difficulty 0
% abcbook-tags australian traditional tunes,australian traditional tunes wiki,celtic tunes,old time tunes,ralph cullen,© free
% abcbook-tablature 
% abcbook-transpose 
% abcbook-tuning ADAE
% abcbook-lastupdated 1739275883795
% abcbook-src-url https://tunebook.net/scrape/tunes.abc
% abcbook-soundfonts 
% abcbook-repeats 1
% NFF Book 2016

